!!!COM: Palestrina, Giovanni Perluigi da
!!!OPR: Missa L'homme arme (1570)
!!!OMD: Credo
!!!OTL: Et exspecto
**kern	**kern	**kern	**kern	**kern
*Ibass	*Itenor	*Itenor	*Icalto	*Icant
!Bassus	!Tenor 2	!Tenor 1	!Altus	!Cantus
*clefF4	*clefGv2	*clefGv2	*clefG2	*clefG2
*k[]	*k[]	*k[]	*k[]	*k[]
*G:mix	*G:mix	*G:mix	*G:mix	*G:mix
*M4/2	*M4/2	*M4/2	*M4/2	*M4/2
=213	=213	=213	=213	=213
0C	0c	0g	0e	0ee
=214	=214	=214	=214	=214
1E	1B	1g	1e	1ee
[1F	[1A	[1f	[1a	2.cc
.	.	.	.	8dd
.	.	.	.	8ee
=215	=215	=215	=215	=215
2F]	0A]	1f]	2a]	0ff
2E	.	.	2g	.
1D	.	1f	2f	.
.	.	.	2d	.
=216	=216	=216	=216	=216
1C	2c	0g	1e	1ee
.	2.c	.	.	.
2.C	.	.	2.cc	2.ee
.	4c	.	.	.
.	2c	.	.	.
4C	.	.	4cc	4ee
=217	=217	=217	=217	=217
2C	2c	1g	2cc	2ee
2C	1g	.	2cc	2ee
1G	.	[1d	1b	1gg
.	[2d	.	.	.
=218	=218	=218	=218	=218
0D	2d]	1d]	0a	2ff
.	2.f	.	.	2.dd
.	.	1d	.	.
.	4e	.	.	4ee
.	2d	.	.	2ff
=219	=219	=219	=219	=219
0r	2c	0g	1r	2ee
.	2B	.	.	2.dd
.	1e	.	2r	.
.	.	.	.	8cc
.	.	.	.	8b
.	.	.	2g	2cc#
=220	=220	=220	=220	=220
1r	1d	[0a	2f	2dd
.	.	.	2d	2dd
2r	1r	.	1f	2cc
2d	.	.	.	2a
=221	=221	=221	=221	=221
2c	2r	1a]	2e	1cc
2A	2f	.	2.c	.
1c	2e	[1g	.	2cc
.	.	.	4d	.
.	2c	.	4e	2cc
.	.	.	4f	.
=222	=222	=222	=222	=222
1G	2e	1g]	4g	4b
.	.	.	4a	4cc
.	1d	.	2b	4dd
.	.	.	.	4ee
1D	.	[1f	[1a	2ff
.	[2A	.	.	2dd
=223	=223	=223	=223	=223
2F	2A]	0f]	2a]	2cc
2D	2d	.	2a	2.ff
2.F	2c	.	1a	.
.	.	.	.	4ee
.	[2A	.	.	[2dd
4G	.	.	.	.
=224	=224	=224	=224	=224
1A	2A]	0e	2.a	2dd]
.	2.a	.	.	4cc
.	.	.	8g	4b
.	.	.	8f	.
1A	.	.	2e	1cc#
.	4g	.	.	.
.	2e	.	[2a	.
=225	=225	=225	=225	=225
1D	2f	0d	4a]	0dd
.	.	.	4g	.
.	1a	.	4f	.
.	.	.	4e	.
2r	.	.	2f	.
2G	4g	.	2b-	.
.	4f	.	.	.
=226	=226	=226	=226	=226
4A	2e	0c	1a	1r
4G	.	.	.	.
4A	2c	.	.	.
4B	.	.	.	.
2c	4e	.	2g	2r
.	4d	.	.	.
2A	4e	.	2c	2a
.	4f#	.	.	.
=227	=227	=227	=227	=227
1G	2.g	0d	2r	4b
.	.	.	.	4a
.	.	.	2g	4b
.	8f	.	.	4cc
.	8e	.	.	.
2r	2f#	.	2a	2dd
2G	2g	.	2b	2b
=228	=228	=228	=228	=228
4A	2e	0c	2cc	1a
4G	.	.	.	.
4A	2c	.	2a	.
4B	.	.	.	.
2c	4e	.	2g	2r
.	4d	.	.	.
2A	4e	.	2c	2a
.	4f#	.	.	.
=229	=229	=229	=229	=229
0G	2g	0B	4d	4b
.	.	.	4c	4a
.	2G	.	4B	4b
.	.	.	4A	4cc
.	4B	.	2G	1dd
.	4A	.	.	.
.	4B	.	[2g	.
.	4c	.	.	.
=230	=230	=230	=230	=230
0D	1d	0A	2g]	1dd
.	.	.	4f	.
.	.	.	4e	.
.	1d	.	1f#	2r
.	.	.	.	2a
=231	=231	=231	=231	=231
1G	2r	[0G	[0g	4b
.	.	.	.	4a
.	2G	.	.	4b
.	.	.	.	4cc
1r	4B	.	.	2dd
.	4c	.	.	.
.	4d	.	.	2b
.	4B	.	.	.
=232	=232	=232	=232	=232
1C	4c	0G]	0g]	0ee
.	4d	.	.	.
.	4e	.	.	.
.	4f	.	.	.
4E	2g	.	.	.
4D	.	.	.	.
4E	[2c	.	.	.
4F	.	.	.	.
=233	=233	=233	=233	=233
1G	2c]	[0G	[0g	1dd
.	2B	.	.	.
1C	1e	.	.	1cc
=234	=234	=234	=234	=234
0G	0d	0G]	0g]	0b
==	==	==	==	==
*-	*-	*-	*-	*-
!!!CDT: 1525/^1526/-1594/2/2
!!!OCY: Italia
!!!AGN: Mass (Tenor)
!!!AST: renaissance, vocal
!!!ASW: Popular Song
!!!PWK: Masses, Book 3
!!!RNB: Cadence finals: C,D
!!!YOR: Le Opere Complete, v. 6, p. 97
!!!YOO: Rome, Italy: Fratelli Scalera
!!!END: 1992//
!!!EED: John Miller
!!!YEC: Copyright 2000, John Miller
!!!YEN: United States of America
!!!YEM: Rights to all derivative electronic formats reserved.
!!!YEM: Refer to licensing agreement for further details.
!!!YEM: This file must be accompanied by the licensing agreement.
!!!YEM: A copy of the licensing agreement may be found at http://www.music-cog.ohio-state.edu/HumdrumDatabases/Palestrina/license.txt
!!!EMD: converted to Humdrum by Bret Aarden
